X:1
T:Title
%%score { ( 1 4 ) | ( 2 3 ) }
L:1/8
M:4/4
K:Db
V:1 treble nm="Grand Piano"
V:4 treble 
V:2 bass 
V:3 bass 
V:1
 z4 z2 z[Q:1/4=100] [FA] | [FA]2 [DF]2 [Fd]3 [FA] | c2 B2 E3 F | GFGA [Gc]2 [CGB]2 | %4
[M:7/8] [DFA]- [DFA]3 [DF]2 z |[M:1/8] [FA] |[M:4/4] [FA]2 [DF]2 [Fd]3 [FA] | c2 B2 E3 F | %8
 GFGA [GB]2 [Gc]2 |[M:3/4] [Fd]6 |[M:1/4] [Fd]2 |[M:4/4] [Ge]4 z2 .[Gc]2 | [FA]6 z2 | %13
 [DGB]3 [DGB] [=GB][GB][Gc][Gd] |[M:7/8] [Ac]-[Ac]-[Ac]- [Ac]3 z |[M:1/8] [GA] | %16
[M:4/4] [FA]2 [Fd]2 [Af]3 [Fd] | e2 d2 E3 F | GFGA B2 [Gc]2 |[M:7/8] [Fd]-[Fd]-[Fd]- [Fd]3 z |] %20
V:2
 z4 z2 z [D,D] | [D,D]2 [D,A,]2 [D,A,]3 [D,D] | [G,=A,D]2 [G,B,D]2 [G,B,]3[K:treble] [A,D] | %3
 [A,E][A,=D][A,E][A,F][K:bass] [A,,A,]2 A,,2 |[M:7/8] D,- D,3 A,2 z |[M:1/8] [D,D] | %6
[M:4/4] [D,D]2 [D,A,]2 [D,A,]3 [D,D] | z4 D2 z2[K:treble] | %8
 [A,E][A,=D][A,E][A,F][K:bass] [A,,A,]2 [A,,A,]2 |[M:3/4] [D,A,]6 |[M:1/4] [D,A,]2 | %11
[M:4/4] [A,C]A,A,[K:treble][A,CG] GG[K:bass] z G | D,D,D,D, D,2 D,2 | G,3 G, [E,E][E,E][E,E][E,E] | %14
[M:7/8] [A,E]-[A,E]-[A,E]- [A,E]3 z |[M:1/8] [A,C] |[M:4/4] [D,D]2 [D,A,]2 [D,D]3 [D,A,] | %17
 [G,B,G]2 [G,B,G]2 [G,B,]3[K:treble] [A,D] | [A,E][A,=D][A,E][A,F] [A,G]2[K:bass] [A,,A,]2 | %19
[M:7/8] [D,A,]-[D,A,]-[D,A,]- [D,A,]3 z |] %20
V:3
 x8 | x8 | x7[K:treble] x | x4[K:bass] x4 |[M:7/8] x7 |[M:1/8] x |[M:4/4] x8 | %7
 [G,=A,D]2 [G,B,D]2 [G,B,]3[K:treble] [A,D] | x4[K:bass] x4 |[M:3/4] x6 |[M:1/4] x2 | %11
[M:4/4] z4[K:treble] [A,C]2[K:bass] A,,2 | x8 | x8 |[M:7/8] x7 |[M:1/8] x |[M:4/4] x8 | %17
 x7[K:treble] x | x6[K:bass] x2 |[M:7/8] x7 |] %20
V:4
 x8 | x8 | x8 | x8 |[M:7/8] x7 |[M:1/8] x |[M:4/4] x8 | x8 | x8 |[M:3/4] x6 |[M:1/4] x2 | %11
[M:4/4] z CCe edC-[CB] | DDDD D2 [DFA]2 | x8 |[M:7/8] x7 |[M:1/8] x |[M:4/4] x8 | x8 | x8 | %19
[M:7/8] x7 |] %20

